X:038
T:Dark Girl Dressed in Blue [1] (slide), The
T:Denis Murphy's Slide, Julia Clifford's Slide
B:CRE3.050 (CailÃÂÃÂÃÂÃÂ­n Dubh i bhFeisteas Gorm 1) 
F:file ID: cre.3/038dark_g1
R:slide % A-B-A
Q:180
M:12/8
L:1/8
K:D
B|A2D FED F2A A2f|gfe fed e2d BdB|
A2D FED F2A d2f|efe B2c d3 d2:|
A|:d2e ~f3 gfe ~f3|gfe fed e2d ~B3|
d2e fef gfe f3|1 a2f e2f d3 d3:|\
[2 a2f e2f d3 dcB||

%%%

